!!!COM: Claude Goudimel
!!!OMD: Psalm 60: O Dieu, qui nous as deboutez
**kern	**kern	**kern	**kern
*part4	*part3	*part2	*part1
*staff4	*staff3	*staff2	*staff1
*I"bassus	*I"tenor	*I"contra	*I"superius
*clefF3	*clefC3	*clefC2	*clefG2
!!LO:TX:omd:t=
*M2/2	*M2/2	*M2/2	*M2/2
*met(c|)	*met(c|)	*met(c|)	*met(c|)
=1	=1	=1	=1
1F	1c	1A	1f
=2	=2	=2	=2
2D	2f	2d	2a
2F	2f	2c	2a
=3	=3	=3	=3
2C	2e	2c	2g
2G	[2d	2B	2g
=4	=4	=4	=4
1A	2d]	1c	1e
.	[2c	.	.
=5	=5	=5	=5
1G	2c]	1d	1g
.	2B	.	.
=6	=6	=6	=6
1C	1c	1e	1g
=7	=7	=7	=7
1r	1r	1r	1r
=8	=8	=8	=8
1c	1c	1e	1g
=9	=9	=9	=9
2A	2c	2e	2a
2F	2f	2a	2cc
=10	=10	=10	=10
2A	2e	2a	2cc
2B-X	2d	2f	[2dd
=11	=11	=11	=11
1A	1e	1a	2dd]
.	.	.	2cc#X
=12	=12	=12	=12
1d	1f	1a	1dd
=13	=13	=13	=13
1c	1g	1cc	1ee
=14	=14	=14	=14
1r	1r	1r	1r
=15	=15	=15	=15
1C	1e	1g	1cc
=16	=16	=16	=16
2C	2g	2e	2cc
2E	2g	2e	2b
=17	=17	=17	=17
2F	2f	2c	2a
2C	2e	2g	2cc
=18	=18	=18	=18
1G	1d	1g	1b
=19	=19	=19	=19
1C	1c	1e	1g
=20	=20	=20	=20
1G	1B	1d	1g
=21	=21	=21	=21
1r	1r	1r	1r
=22	=22	=22	=22
1G	1G	1d	1g
=23	=23	=23	=23
2D	2A	2d	2f#X
2G	2B	2d	2g
=24	=24	=24	=24
2F	2c	2f	2a
2D	[2d	2f	2a
=25	=25	=25	=25
1F	2d]	1f	1a
.	[2c	.	.
=26	=26	=26	=26
1G	2c]	1d	1g
.	2B	.	.
=27	=27	=27	=27
1C	1c	1e	1g
=28	=28	=28	=28
1r	1r	1r	1r
=29	=29	=29	=29
1c	1e	1g	1cc
=30	=30	=30	=30
2c	2e	2g	2cc
2G	2d	2g	2b
=31	=31	=31	=31
1A	1c	1e	1a
=32	=32	=32	=32
1F	1f	1A	1a
=33	=33	=33	=33
2C	2e	2c	2g
2F	2d	2A	2a
=34	=34	=34	=34
1E	1e	1B	1g#X
=35	=35	=35	=35
1r	1r	1r	1r
=36	=36	=36	=36
1c	1e	1g	1cc
=37	=37	=37	=37
2c	2e	2g	2cc
2G	2d	2g	2b
=38	=38	=38	=38
1A	1c	1e	1a
=39	=39	=39	=39
1F	1f	1A	1a
=40	=40	=40	=40
2C	2e	2c	2g
2F	2d	2A	2a
=41	=41	=41	=41
1E	1e	1B	1g#X
=42	=42	=42	=42
1r	1r	1r	1r
=43	=43	=43	=43
1C	1e	1g	1cc
=44	=44	=44	=44
2E	2g	2e	2b
2F	2f	2c	2a
=45	=45	=45	=45
1C	1e	1g	1cc
=46	=46	=46	=46
1D	1d	1f	2b
.	.	.	[2a
=47	=47	=47	=47
2F	2c	2f	2a]
2G	2B	2d	[2g
=48	=48	=48	=48
1D	1A	1d	2g]
.	.	.	2f#X
=49	=49	=49	=49
1G	1G	1d	1g
=50	=50	=50	=50
1r	1r	1r	1r
=51	=51	=51	=51
1F	1c	1f	1a
=52	=52	=52	=52
2D	2d	2f	2a
2C	2e	2g	2cc
=53	=53	=53	=53
1F	1c	1f	1a
=54	=54	=54	=54
1D	1f	1a	1dd
=55	=55	=55	=55
2E	2e	2g	2b
2C	2e	2g	[2cc
=56	=56	=56	=56
1G	1d	1g	2cc]
.	.	.	2b
=57	=57	=57	=57
1C;	1c;	1g;	1cc;
==	==	==	==
*-	*-	*-	*-
!!!software: music21 v.9.7.1
!!!software: music21 v.9.1.0
!!!RDF**kern: > = above
!!!RDF**kern: < = below
